X:8
T:Peggy Ryan's Fancy
T:Murroe, The
R:polka
Z:id:hn-polka-8
M:2/4
L:1/8
K:G
Bd G>A|Bd GB|A2 FA|GF ED|Bd G>A|Bd GB|A2 FA|AG G>A:|
|:Bd ef|g2 ga|f/e/d ef|ed BA|Bd ef|g2 ga|f/e/d ef|e2 ed:|
<end>
<start>
